X:279
T: ICH TRINKE TAEGLICH MEIN NEKTARVOLLES GLAESCHEN
N: F0491
O: Europa, Mitteleuropa, Deutschland
R: Studenten -, Trink - Lied
M: 2/4
L: 1/16
K: Eb
E2 | B4B2A2 | A2G2G2
B2 | c2B2A2G2 | G2F2F2
B2 | B4B2A2 | A2G2G2
B2 | c2B2A2G2 | G4F2z2
F3GF2E2 | D2F2B4
F3GF2E2 | D2F2B2
B,2 | E2G2B2B,2 | E2G2B2
B,2 | E2G2B2B,2 | E2G2B2
B,2 | E2G2B2B,2 | E2G2B4
e2dcB2A2 | B4B,4 | E8
e2dcB2c2 | B4B4 | E8

